dist/images/arrow-check-panel.svg

<svg width="25" height="19" viewBox="0 0 25 19" fill="none" xmlns="http://www.w3.org/2000/svg">
<path d="M20.9635 7.87101C20.6025 7.52563 20.0157 7.52385 19.6529 7.86924L16.6062 10.7864L15.4104 9.64219C15.0495 9.29681 14.4627 9.29681 14.1018 9.64219C13.7408 9.98758 13.7408 10.549 14.1018 10.8944L15.9528 12.6656C16.1323 12.8374 16.3693 12.9242 16.6062 12.9242C16.8431 12.9242 17.08 12.8374 17.2614 12.6656L20.9635 9.12324C21.3244 8.77786 21.3244 8.21639 20.9635 7.87101Z" fill="#318CCA" fill-opacity="0.75"/>
<mask id="path-2-outside-1" maskUnits="userSpaceOnUse" x="9.67529" y="0" width="15" height="19" fill="black">
<rect fill="white" x="9.67529" width="15" height="19"/>
<path fill-rule="evenodd" clip-rule="evenodd" d="M20.6688 3.125H22.8895C23.5014 3.125 23.9999 3.60206 23.9999 4.1875V16.9375C23.9999 17.5229 23.5014 18 22.8895 18H11.7857C11.1739 18 10.6753 17.5229 10.6753 16.9375V15.1667H11.7857V16.9375H22.8895V4.1875H20.6688V4.71875C20.6688 5.012 20.42 5.25 20.1136 5.25H14.5616C14.2552 5.25 14.0064 5.012 14.0064 4.71875V4.1875H11.7857V6.66667H10.6753V4.1875C10.6753 3.60206 11.1739 3.125 11.7857 3.125H14.0064V2.59375C14.0064 2.3005 14.2552 2.0625 14.5616 2.0625H15.7664C15.9963 1.44412 16.6136 1 17.3376 1C18.0616 1 18.6789 1.44412 18.9088 2.0625H20.1136C20.42 2.0625 20.6688 2.3005 20.6688 2.59375V3.125ZM16.2272 3.125H15.1168V4.1875H19.5584V3.125H18.448C18.1415 3.125 17.8928 2.887 17.8928 2.59375C17.8928 2.3005 17.6441 2.0625 17.3376 2.0625C17.0311 2.0625 16.7824 2.3005 16.7824 2.59375C16.7824 2.887 16.5337 3.125 16.2272 3.125Z"/>
</mask>
<path fill-rule="evenodd" clip-rule="evenodd" d="M20.6688 3.125H22.8895C23.5014 3.125 23.9999 3.60206 23.9999 4.1875V16.9375C23.9999 17.5229 23.5014 18 22.8895 18H11.7857C11.1739 18 10.6753 17.5229 10.6753 16.9375V15.1667H11.7857V16.9375H22.8895V4.1875H20.6688V4.71875C20.6688 5.012 20.42 5.25 20.1136 5.25H14.5616C14.2552 5.25 14.0064 5.012 14.0064 4.71875V4.1875H11.7857V6.66667H10.6753V4.1875C10.6753 3.60206 11.1739 3.125 11.7857 3.125H14.0064V2.59375C14.0064 2.3005 14.2552 2.0625 14.5616 2.0625H15.7664C15.9963 1.44412 16.6136 1 17.3376 1C18.0616 1 18.6789 1.44412 18.9088 2.0625H20.1136C20.42 2.0625 20.6688 2.3005 20.6688 2.59375V3.125ZM16.2272 3.125H15.1168V4.1875H19.5584V3.125H18.448C18.1415 3.125 17.8928 2.887 17.8928 2.59375C17.8928 2.3005 17.6441 2.0625 17.3376 2.0625C17.0311 2.0625 16.7824 2.3005 16.7824 2.59375C16.7824 2.887 16.5337 3.125 16.2272 3.125Z" fill="#318CCA" fill-opacity="0.75"/>
<path d="M20.6688 3.125H20.5688V3.225H20.6688V3.125ZM10.6753 15.1667V15.0667H10.5753V15.1667H10.6753ZM11.7857 15.1667H11.8857V15.0667H11.7857V15.1667ZM11.7857 16.9375H11.6857V17.0375H11.7857V16.9375ZM22.8895 16.9375V17.0375H22.9895V16.9375H22.8895ZM22.8895 4.1875H22.9895V4.0875H22.8895V4.1875ZM20.6688 4.1875V4.0875H20.5688V4.1875H20.6688ZM14.0064 4.1875H14.1064V4.0875H14.0064V4.1875ZM11.7857 4.1875V4.0875H11.6857V4.1875H11.7857ZM11.7857 6.66667V6.76667H11.8857V6.66667H11.7857ZM10.6753 6.66667H10.5753V6.76667H10.6753V6.66667ZM14.0064 3.125V3.225H14.1064V3.125H14.0064ZM15.7664 2.0625V2.1625H15.8359L15.8601 2.09734L15.7664 2.0625ZM18.9088 2.0625L18.8151 2.09734L18.8393 2.1625H18.9088V2.0625ZM15.1168 3.125V3.025H15.0168V3.125H15.1168ZM15.1168 4.1875H15.0168V4.2875H15.1168V4.1875ZM19.5584 4.1875V4.2875H19.6584V4.1875H19.5584ZM19.5584 3.125H19.6584V3.025H19.5584V3.125ZM22.8895 3.025H20.6688V3.225H22.8895V3.025ZM24.0999 4.1875C24.0999 3.54273 23.5524 3.025 22.8895 3.025V3.225C23.4503 3.225 23.8999 3.6614 23.8999 4.1875H24.0999ZM24.0999 16.9375V4.1875H23.8999V16.9375H24.0999ZM22.8895 18.1C23.5524 18.1 24.0999 17.5823 24.0999 16.9375H23.8999C23.8999 17.4636 23.4503 17.9 22.8895 17.9V18.1ZM11.7857 18.1H22.8895V17.9H11.7857V18.1ZM10.5753 16.9375C10.5753 17.5823 11.1228 18.1 11.7857 18.1V17.9C11.2249 17.9 10.7753 17.4636 10.7753 16.9375H10.5753ZM10.5753 15.1667V16.9375H10.7753V15.1667H10.5753ZM11.7857 15.0667H10.6753V15.2667H11.7857V15.0667ZM11.8857 16.9375V15.1667H11.6857V16.9375H11.8857ZM22.8895 16.8375H11.7857V17.0375H22.8895V16.8375ZM22.7895 4.1875V16.9375H22.9895V4.1875H22.7895ZM20.6688 4.2875H22.8895V4.0875H20.6688V4.2875ZM20.7688 4.71875V4.1875H20.5688V4.71875H20.7688ZM20.1136 5.35C20.4711 5.35 20.7688 5.07134 20.7688 4.71875H20.5688C20.5688 4.95266 20.369 5.15 20.1136 5.15V5.35ZM14.5616 5.35H20.1136V5.15H14.5616V5.35ZM13.9064 4.71875C13.9064 5.07134 14.2041 5.35 14.5616 5.35V5.15C14.3062 5.15 14.1064 4.95266 14.1064 4.71875H13.9064ZM13.9064 4.1875V4.71875H14.1064V4.1875H13.9064ZM11.7857 4.2875H14.0064V4.0875H11.7857V4.2875ZM11.8857 6.66667V4.1875H11.6857V6.66667H11.8857ZM10.6753 6.76667H11.7857V6.56667H10.6753V6.76667ZM10.5753 4.1875V6.66667H10.7753V4.1875H10.5753ZM11.7857 3.025C11.1228 3.025 10.5753 3.54273 10.5753 4.1875H10.7753C10.7753 3.6614 11.2249 3.225 11.7857 3.225V3.025ZM14.0064 3.025H11.7857V3.225H14.0064V3.025ZM13.9064 2.59375V3.125H14.1064V2.59375H13.9064ZM14.5616 1.9625C14.2041 1.9625 13.9064 2.24116 13.9064 2.59375H14.1064C14.1064 2.35984 14.3062 2.1625 14.5616 2.1625V1.9625ZM15.7664 1.9625H14.5616V2.1625H15.7664V1.9625ZM17.3376 0.9C16.5726 0.9 15.9173 1.36942 15.6727 2.02766L15.8601 2.09734C16.0752 1.51883 16.6547 1.1 17.3376 1.1V0.9ZM19.0025 2.02766C18.7579 1.36942 18.1026 0.9 17.3376 0.9V1.1C18.0205 1.1 18.6 1.51883 18.8151 2.09734L19.0025 2.02766ZM20.1136 1.9625H18.9088V2.1625H20.1136V1.9625ZM20.7688 2.59375C20.7688 2.24116 20.4711 1.9625 20.1136 1.9625V2.1625C20.369 2.1625 20.5688 2.35984 20.5688 2.59375H20.7688ZM20.7688 3.125V2.59375H20.5688V3.125H20.7688ZM15.1168 3.225H16.2272V3.025H15.1168V3.225ZM15.2168 4.1875V3.125H15.0168V4.1875H15.2168ZM19.5584 4.0875H15.1168V4.2875H19.5584V4.0875ZM19.4584 3.125V4.1875H19.6584V3.125H19.4584ZM18.448 3.225H19.5584V3.025H18.448V3.225ZM17.7928 2.59375C17.7928 2.94634 18.0905 3.225 18.448 3.225V3.025C18.1926 3.025 17.9928 2.82766 17.9928 2.59375H17.7928ZM17.3376 2.1625C17.593 2.1625 17.7928 2.35984 17.7928 2.59375H17.9928C17.9928 2.24116 17.6951 1.9625 17.3376 1.9625V2.1625ZM16.8824 2.59375C16.8824 2.35984 17.0822 2.1625 17.3376 2.1625V1.9625C16.9801 1.9625 16.6824 2.24116 16.6824 2.59375H16.8824ZM16.2272 3.225C16.5847 3.225 16.8824 2.94634 16.8824 2.59375H16.6824C16.6824 2.82766 16.4827 3.025 16.2272 3.025V3.225Z" fill="#318CCA" fill-opacity="0.75" mask="url(#path-2-outside-1)"/>
<path d="M1.60619 11.3188L1.58935 11.3163L8.80702 11.3163L6.53805 12.8995C6.42694 12.9768 6.366 13.0815 6.366 13.1914C6.366 13.3013 6.42694 13.4053 6.53805 13.4828L6.8911 13.7287C7.00212 13.806 7.15006 13.8488 7.30782 13.8488C7.46567 13.8488 7.61369 13.8063 7.72471 13.729L11.6142 11.0213C11.7256 10.9436 11.7866 10.8403 11.7861 10.7303C11.7866 10.6197 11.7256 10.5163 11.6142 10.4388L7.72471 7.73082C7.61369 7.65358 7.46576 7.61109 7.30782 7.61109C7.15006 7.61109 7.00212 7.65364 6.8911 7.73082L6.53805 7.97675C6.42694 8.05393 6.366 8.15699 6.366 8.26689C6.366 8.37673 6.42694 8.47436 6.53805 8.5516L8.83263 10.1437L1.59812 10.1437C1.27304 10.1437 0.999879 10.3388 0.999879 10.565L0.999879 10.9128C0.999879 11.139 1.28111 11.3188 1.60619 11.3188Z" fill="#318CCA" fill-opacity="0.75"/>
<path d="M1.60638 11.3663L1.60619 11.3688C1.435 11.3688 1.27361 11.3216 1.15359 11.2424C1.03404 11.1635 0.949879 11.0483 0.949879 10.9128L0.949879 10.565C0.949879 10.4306 1.03076 10.3118 1.14822 10.2287C1.2662 10.1452 1.42601 10.0937 1.59812 10.0937L8.67286 10.0937L6.50955 8.59268L6.50951 8.59265C6.38927 8.50906 6.316 8.39773 6.316 8.26689C6.316 8.13682 6.38841 8.01981 6.50953 7.93569L6.86252 7.68979L6.86256 7.68976C6.98328 7.60585 7.14159 7.56109 7.30782 7.56109C7.47421 7.56109 7.63253 7.60578 7.75327 7.68978L7.75328 7.68979L11.6427 10.3978C11.7641 10.4822 11.8366 10.5996 11.8361 10.7303M1.60638 11.3663L6.50944 12.8585C6.38814 12.9429 6.316 13.0616 6.316 13.1914C6.316 13.3214 6.38827 13.4393 6.50945 13.5238L6.50947 13.5238L6.86252 13.7697L6.86253 13.7698C6.98323 13.8538 7.14154 13.8988 7.30782 13.8988C7.4741 13.8988 7.63253 13.8541 7.75328 13.7701L11.6427 11.0623L11.6427 11.0623C11.7641 10.9778 11.8366 10.8605 11.8361 10.7303M1.60638 11.3663L8.64799 11.3663L6.50949 12.8585L1.60638 11.3663ZM11.8361 10.7303C11.8361 10.7304 11.8361 10.7305 11.8361 10.7305L11.7861 10.7303L11.8361 10.7301C11.8361 10.7302 11.8361 10.7303 11.8361 10.7303Z" stroke="#318CCA" stroke-opacity="0.75" stroke-width="0.1"/>
</svg>

<svg width="25" height="19" fill="none" xmlns="http://www.w3.org/2000/svg"><path d="M20.963 7.871a.958.958 0 00-1.31-.002l-3.047 2.917-1.196-1.144a.956.956 0 00-1.308 0 .86.86 0 000 1.252l1.85 1.772c.18.171.417.258.654.258a.952.952 0 00.655-.258l3.703-3.543a.86.86 0 000-1.252z" fill="#318CCA" fill-opacity=".75"/><mask id="a" maskUnits="userSpaceOnUse" x="9.675" y="0" width="15" height="19" fill="#000"><path fill="#fff" d="M9.675 0h15v19h-15z"/><path fill-rule="evenodd" clip-rule="evenodd" d="M20.669 3.125h2.22c.612 0 1.11.477 1.11 1.063v12.75c0 .585-.498 1.062-1.11 1.062H11.787c-.612 0-1.11-.477-1.11-1.063v-1.77h1.11v1.77H22.89V4.188h-2.221v.532a.544.544 0 01-.555.531h-5.552a.544.544 0 01-.556-.531v-.532h-2.22v2.48h-1.11v-2.48c0-.585.498-1.062 1.11-1.062h2.22v-.531c0-.293.25-.531.556-.531h1.204c.23-.619.848-1.063 1.572-1.063.724 0 1.34.444 1.57 1.063h1.206c.306 0 .555.237.555.53v.532zm-4.442 0h-1.11v1.063h4.441V3.125h-1.11a.544.544 0 01-.555-.531.544.544 0 00-.555-.531.544.544 0 00-.556.53.544.544 0 01-.555.532z"/></mask><path fill-rule="evenodd" clip-rule="evenodd" d="M20.669 3.125h2.22c.612 0 1.11.477 1.11 1.063v12.75c0 .585-.498 1.062-1.11 1.062H11.787c-.612 0-1.11-.477-1.11-1.063v-1.77h1.11v1.77H22.89V4.188h-2.221v.532a.544.544 0 01-.555.531h-5.552a.544.544 0 01-.556-.531v-.532h-2.22v2.48h-1.11v-2.48c0-.585.498-1.062 1.11-1.062h2.22v-.531c0-.293.25-.531.556-.531h1.204c.23-.619.848-1.063 1.572-1.063.724 0 1.34.444 1.57 1.063h1.206c.306 0 .555.237.555.53v.532zm-4.442 0h-1.11v1.063h4.441V3.125h-1.11a.544.544 0 01-.555-.531.544.544 0 00-.555-.531.544.544 0 00-.556.53.544.544 0 01-.555.532z" fill="#318CCA" fill-opacity=".75"/><path d="M20.669 3.125h-.1v.1h.1v-.1zm-9.994 12.042v-.1h-.1v.1h.1zm1.11 0h.1v-.1h-.1v.1zm0 1.77h-.1v.1h.1v-.1zm11.105 0v.1h.1v-.1h-.1zm0-12.75h.1v-.1h-.1v.1zm-2.221 0v-.1h-.1v.1h.1zm-6.663 0h.1v-.1h-.1v.1zm-2.22 0v-.1h-.1v.1h.1zm0 2.48v.1h.1v-.1h-.1zm-1.11 0h-.1v.1h.1v-.1zm3.33-3.542v.1h.1v-.1h-.1zm1.76-1.063v.1h.07l.024-.065-.094-.034zm3.143 0l-.094.035.024.066h.07v-.1zm-3.792 1.063v-.1h-.1v.1h.1zm0 1.063h-.1v.1h.1v-.1zm4.441 0v.1h.1v-.1h-.1zm0-1.063h.1v-.1h-.1v.1zm3.332-.1h-2.221v.2h2.22v-.2zm1.21 1.163c0-.645-.548-1.163-1.21-1.163v.2c.56 0 1.01.436 1.01.962h.2zm0 12.75V4.188h-.2v12.75h.2zM22.89 18.1c.662 0 1.21-.518 1.21-1.163h-.2c0 .527-.45.963-1.01.963v.2zm-11.104 0H22.89v-.2H11.786v.2zm-1.21-1.163c0 .645.547 1.163 1.21 1.163v-.2c-.561 0-1.01-.436-1.01-.962h-.2zm0-1.77v1.77h.2v-1.77h-.2zm1.21-.1h-1.11v.2h1.11v-.2zm.1 1.87v-1.77h-.2v1.77h.2zm11.004-.1H11.786v.2H22.89v-.2zm-.1-12.65v12.75h.2V4.188h-.2zm-2.121.1h2.22v-.2h-2.22v.2zm.1.432v-.532h-.2v.532h.2zm-.655.631a.644.644 0 00.655-.631h-.2c0 .234-.2.431-.455.431v.2zm-5.552 0h5.552v-.2h-5.552v.2zm-.656-.631c0 .352.298.631.656.631v-.2a.444.444 0 01-.456-.431h-.2zm0-.532v.532h.2v-.532h-.2zm-2.12.1h2.22v-.2h-2.22v.2zm.1 2.38v-2.48h-.2v2.48h.2zm-1.21.1h1.11v-.2h-1.11v.2zm-.1-2.58v2.48h.2v-2.48h-.2zm1.21-1.162c-.663 0-1.21.518-1.21 1.163h.2c0-.527.449-.963 1.01-.963v-.2zm2.22 0h-2.22v.2h2.22v-.2zm-.1-.431v.531h.2v-.531h-.2zm.656-.631a.644.644 0 00-.656.63h.2c0-.233.2-.43.456-.43v-.2zm1.204 0h-1.204v.2h1.204v-.2zM17.338.9c-.765 0-1.42.47-1.665 1.128l.187.07a1.567 1.567 0 011.478-.998V.9zm1.665 1.128C18.758 1.369 18.103.9 17.338.9v.2c.682 0 1.262.419 1.477.997l.188-.07zm1.11-.066H18.91v.2h1.205v-.2zm.656.632a.644.644 0 00-.655-.631v.2c.255 0 .455.197.455.43h.2zm0 .531v-.531h-.2v.531h.2zm-5.652.1h1.11v-.2h-1.11v.2zm.1.962V3.125h-.2v1.063h.2zm4.341-.1h-4.441v.2h4.441v-.2zm-.1-.962v1.063h.2V3.125h-.2zm-1.01.1h1.11v-.2h-1.11v.2zm-.655-.631c0 .352.297.631.655.631v-.2a.444.444 0 01-.455-.431h-.2zm-.455-.431c.255 0 .455.197.455.43h.2a.644.644 0 00-.655-.63v.2zm-.456.43c0-.233.2-.43.456-.43v-.2a.644.644 0 00-.656.63h.2zm-.655.632a.644.644 0 00.655-.631h-.2c0 .234-.2.431-.455.431v.2z" fill="#318CCA" fill-opacity=".75" mask="url(#a)"/><path d="M1.606 11.319l-.017-.003h7.218L6.538 12.9c-.111.078-.172.183-.172.292 0 .11.06.214.172.292l.353.246c.111.077.26.12.417.12a.734.734 0 00.417-.12l3.89-2.708c.11-.077.172-.18.171-.29 0-.111-.06-.215-.172-.292L7.724 7.73a.734.734 0 00-.416-.12.735.735 0 00-.417.12l-.353.246c-.111.077-.172.18-.172.29 0 .11.06.207.172.285l2.295 1.592H1.598c-.325 0-.598.195-.598.421v.348c0 .226.281.406.606.406z" fill="#318CCA" fill-opacity=".75"/><path d="M1.606 11.366v.003a.833.833 0 01-.452-.127c-.12-.079-.204-.194-.204-.33v-.347c0-.134.08-.253.198-.336a.786.786 0 01.45-.135h7.075L6.51 8.593h0c-.12-.084-.194-.195-.194-.326 0-.13.072-.247.194-.331l.353-.246h0a.785.785 0 01.445-.129c.166 0 .325.045.445.129h0l3.89 2.708c.121.084.194.202.193.332m-10.23.636l4.903 1.492a.41.41 0 00-.193.333c0 .13.072.248.193.333h0l.354.246h0c.12.084.279.129.445.129a.785.785 0 00.445-.129l3.89-2.708h0c.121-.084.194-.201.193-.332m-10.23.636h7.042l-2.139 1.492-4.903-1.492zm10.23-.636s0 0 0 0h-.05.05s0 0 0 0z" stroke="#318CCA" stroke-opacity=".75" stroke-width=".1"/></svg>
